X: 24
T: Love is the cause of my Mourning
%R: _
B: "A Collection of Original Scotch-Tunes", Henry Playford, 1700, ed. p.10 #24
F: http://imslp.org/wiki/A_Collection_of_Original_Scotch_Tunes_(Various)
Z: 2015 John Chambers <jc:trillian.mit.edu>
M: 3/4
L: 1/8
K: F
% - - - - - - - - - - - - - - - - - - - - - - - - - - - - -
C2 |\
FG A2 A2 | Ac GA F2 | fg (g/f/g) a2 | A4 c2 |\
d2 fd cA | c2 dc AF | (ag) (fd) (cA) | G4
(FD) |\
FG A2 A2 | Ac GA F2 | fg g/f/g a2 | A4 f2 |\
A2 (c/A/c) GF | G2 F2 G2 | c2 A2 Ac | A4 ||
F2 |\
f3 g (f/g/a) | f3 d c2 | G2 cd fc | df dc A2 |\
c2 Ac df | Ac GA F2 | (ag) (fd) (cA) | G4
FD |\
FG A2 A2 | Ac AG AF | fg (g/f/g) a2 | A4 f2 |\
A2 cA GF | G2 F2 GA | c2 A2 Ac | A6 |]
% - - - - - - - - - - - - - - - - - - - - - - - - - - - - -

%%sep 1 1 500
%%sep 1 1 500

